X:243
T: UND WENN DIE FINSTRE NACHT THUT KOMMEN
N: E0828
O: Europa, Mitteleuropa, Schweiz, Bern
R: Kilt - Lied
M: 2/4
L: 1/16
K: A
E2 | A4E2G2 | A4E2G2 | A4e4 | c4A2
A2 | B6e2 | B6A2 | G4F4 | E4z4
e4c2B2 | c6e2 | e4d2c2 | B4z4
e2f2e2d2 | c4A4 | B2AAB2c2 | A2A2A4
e2f2e2d2 | c4A4 | B2AAB2c2 | A2A2A2

